!!!!SEGMENT: pl-kk--kk-i-277--001-009_anonim--rorate-caeli-ecce-virgo.krn
!!!cenid: 16xx:1081
!!!COM: Anonim
!!!COM-rismID: pe30004985
!!!CDT:
!!!CNT:
!!!OPR: Rorate caeli
!!!OTL: Ecce virgo
!!!OMV: 009
!!!PDT:
!!!AGN: Sacred
!!!SMS-siglum: PL-Kk
!!!SMS-shelfmark: Kk.I.277
!!!SMS-shelfwork: 001-009 M
!!!SMS-variant:
!!!SMS-altvar:
!!!NIFC-rismSourceID: 1001147171
!!!NIFC-rismChildID: 1001147186
!!!NIFC-islandoraID: pl-kk:4889
!!!URL-pdf-islandora: https://repozytorium.nifc.pl/islandora/object/pl-kk%3A4889/datastream/PDF/view
!!!URL-scan: https://polish.musicsources.pl/pl/lokalizacje/galeria/rekopisy/5895 @EN{Scan on Polish Music Sources Website} @PL{Skany w portalu Dziedzictwo Muzyki Polskiej w otwartym dostępie}
!!!IIIF:
!!!ONB-nifc: UWAGA: Rorate 1mi officii od str. 1. Części: 1. Rorate caeli (Rorate caeli + Benedixisti + Gloria patri), 2. Kyrie, 3. Tollite portas, 4. Alleluia, 5. Mittit ad virginem, 6. Ave Maria, 7. Sanctus, 8. Agnus Dei, 9. Ecce virgo, 10. Deo gratias
!!!AIN: 1 tenor
!!!key:
**kern	**text
*Itenor	*
*I"[Tenore]	*
*I'[T]	*
*clefC4	*
*k[]	*
*d:	*
*M2/1	*
*met(C)	*
=1-	=1-
1D	Ec-
1D	-ce
=2-	=2-
*lig	*
1F	Vir-
1E	.
*Xlig	*
=3-	=3-
*lig	*
1F	-go
!LO:TX:a:t=P:global:problem=rozdzielacz słów	!
1D,<	.
*Xlig	*
!LO:LB:g=original	!
=4-	=4-
*lig	*
1D	con-
1E	.
*Xlig	*
=5-	=5-
*lig	*
1G	-ci-
1A	.
*Xlig	*
=6-	=6-
*lig	*
1G	-pi-
1F	.
*Xlig	*
=7-	=7-
*lig	*
1F	-et
1E	.
*Xlig	*
=8-	=8-
*lig	*
1F	.
1D,<	.
*Xlig	*
=9-	=9-
*lig	*
1D	et
1E	.
*Xlig	*
=10-	=10-
*lig	*
1G	pa-
1A	.
*Xlig	*
=11-	=11-
*lig	*
1c	.
1d	.
*Xlig	*
=12-	=12-
1A	-ri-
*lig	*
1G	.
=13-	=13-
1A	.
*Xlig	*
1A,<	-et
=14-	=14-
1A	fi-
*lig	*
1A	-li-
=15-	=15-
1B	.
*Xlig	*
*lig	*
1c	.
=16-	=16-
1A	.
*Xlig	*
1A,<	um
=17-	=17-
1G	et
*lig	*
1B	Vo-
=18-	=18-
1c	.
*Xlig	*
!LO:LB:g=original	!
*lig	*
1A	-ca-
=19-	=19-
1G	.
*Xlig	*
*lig	*
1c	.
=20-	=20-
1A	.
*Xlig	*
1c	-bi-
=21-	=21-
*lig	*
1G	-tur
1A	.
*Xlig	*
=22-	=22-
*lig	*
1B	.
1c	.
*Xlig	*
=23-	=23-
1A,<	.
1F	no-
=24-	=24-
1F	-men
*lig	*
1F	e-
=25-	=25-
1A	.
*Xlig	*
*lig	*
1B	.
=26-	=26-
1A	.
*Xlig	*
*lig	*
1A	-ius
=27-	=27-
1G	.
*Xlig	*
1F	e-
=28-	=28-
*lig	*
1G	.
1E	.
*Xlig	*
=29-	=29-
*lig	*
1F	.
1D	.
*Xlig	*
=30-	=30-
1D	-ma-
*lig	*
1F	.
=31-	=31-
1G	.
*Xlig	*
1A	.
=32-	=32-
*lig	*
1F	-nu-
1E	.
*Xlig	*
!LO:LB:g=original	!
=33-	=33-
*lig	*
1D	.
1C	.
*Xlig	*
=34-	=34-
0Dl;;	-el
==	==
*-	*-
!!!RDF**kern: < = below
!!!RDF**kern: l = terminal long
!!!ENC: Marta Lawrence
!!!END: 2021-03-28
!!!ENC: Tomasz Grochalski
!!!END: 2021-03-14
!!!YEC: Copyright 2022 Narodowy Instytut Fryderyka Chopina (https://polishscores.org)
!!!YEM: License CC-BY-4.0 (https://creativecommons.org/licenses/by/4.0)
